X:55
T:Tehan's Favorite
C:Traditional
M:6/8
R:Slide
K:Em
efe B2A | GFE B2E | FED A2D | d2D A2D |
efe B2A | GFE B2E | FED F2A | F2E E3:|
|: B2e ede | f2a afa | baf a2f | e2d B2A |
[1 B2e ede | f2a afa | baf a2f | e3 e2d :|
[2 faf f2e | efe B2A | FED F2A | F2E E3 |]

